tools/local_adjust_lab/sample_luts/cool_moonlight.cube
TITLE "mIV Sample Cool Moonlight"
LUT_3D_SIZE 2
DOMAIN_MIN 0.0 0.0 0.0
DOMAIN_MAX 1.0 1.0 1.0

0.02 0.03 0.10
0.84 0.03 0.10
0.02 0.95 0.18
0.84 0.95 0.18
0.02 0.07 1.00
0.84 0.07 1.00
0.02 0.99 1.00
0.84 0.99 1.00
