tools/local_adjust_lab/sample_luts/soft_film.cube
TITLE "mIV Sample Soft Film"
LUT_3D_SIZE 2
DOMAIN_MIN 0.0 0.0 0.0
DOMAIN_MAX 1.0 1.0 1.0

0.10 0.08 0.06
0.92 0.10 0.06
0.14 0.88 0.06
0.96 0.90 0.06
0.10 0.08 0.78
0.92 0.10 0.78
0.14 0.88 0.78
0.96 0.90 0.78
