tools/local_adjust_lab/sample_luts/vivid_pop.cube
TITLE "mIV Sample Vivid Pop"
LUT_3D_SIZE 2
DOMAIN_MIN 0.0 0.0 0.0
DOMAIN_MAX 1.0 1.0 1.0

0.00 0.00 0.00
1.00 0.02 0.02
0.02 1.00 0.02
1.00 1.00 0.00
0.02 0.02 1.00
1.00 0.00 1.00
0.00 1.00 1.00
1.00 1.00 1.00
