tools/local_adjust_lab/sample_luts/warm_sunset.cube
TITLE "mIV Sample Warm Sunset"
LUT_3D_SIZE 2
DOMAIN_MIN 0.0 0.0 0.0
DOMAIN_MAX 1.0 1.0 1.0

0.08 0.03 0.00
1.00 0.15 0.00
0.08 0.81 0.00
1.00 0.93 0.00
0.18 0.03 0.72
1.00 0.15 0.67
0.18 0.81 0.72
1.00 0.93 0.67
